src/icons/archive.svg

<svg xmlns="http://www.w3.org/2000/svg" width="24" height="24" fill="none"><path fill="currentColor" d="M16 11H8v2h8z"/><path fill="currentColor" fill-rule="evenodd" d="M1 9h2v12h18V9h2V3H1zm20-4H3v2h18zM5 9h14v10H5z" clip-rule="evenodd"/></svg>

<svg width="24" height="24" viewBox="0 0 24 24" fill="none" xmlns="http://www.w3.org/2000/svg">
<path d="M16 11H8V13H16V11Z" fill="black"/>
<path fill-rule="evenodd" clip-rule="evenodd" d="M1 9H3V21H21V9H23V3H1V9ZM21 5H3V7H21V5ZM5 9H19V19H5V9Z" fill="black"/>
</svg>
